src/assets/tiles/face-lose.svg

<?xml version="1.0" encoding="UTF-8"?>
<!DOCTYPE svg PUBLIC "-//W3C//DTD SVG 1.1//EN" "http://www.w3.org/Graphics/SVG/1.1/DTD/svg11.dtd">
<!-- Creator: CorelDRAW -->
<svg xmlns="http://www.w3.org/2000/svg" xml:space="preserve" width="25mm" height="25mm" style="shape-rendering:geometricPrecision; text-rendering:geometricPrecision; image-rendering:optimizeQuality; fill-rule:evenodd; clip-rule:evenodd"
viewBox="0 0 1.71244 1.71244"
 xmlns:xlink="http://www.w3.org/1999/xlink">
 <defs>
  <style type="text/css">
   <![CDATA[
    .fil3 {fill:none}
    .fil7 {fill:black}
    .fil6 {fill:black}
    .fil0 {fill:gray}
    .fil2 {fill:#c6c6c6}
    .fil1 {fill:white}
    .fil5 {fill:black;fill-rule:nonzero}
    .fil4 {fill:url(#id0)}
   ]]>
  </style>
  <radialGradient id="id0" gradientUnits="userSpaceOnUse" cx="0.63052" cy="0.676989" r="0.678256" fx="0.63052" fy="0.676989">
   <stop offset="0" style="stop-color:white"/>
   <stop offset="0.301961" style="stop-color:#F3F516"/>
   <stop offset="0.588235" style="stop-color:#FCCE00"/>
   <stop offset="1" style="stop-color:#FF9E67"/>
  </radialGradient>
 </defs>
 <g id="Layer_x0020_1">
  <metadata id="CorelCorpID_0Corel-Layer"/>
  <g id="_280013496">
   <rect id="_280272344" class="fil0" width="1.71244" height="1.71244"/>
   <g>
    <polygon id="_280270160" class="fil1" points="0.0547364,0.0547364 1.65646,0.0547364 0.973241,0.735356 0.0547364,1.65646 "/>
    <polygon id="_280270088" class="fil0" points="1.66743,0.0450098 1.66743,1.66743 0.0450098,1.66743 "/>
    <rect id="_280270016" class="fil2" x="0.20264" y="0.20264" width="1.30591" height="1.30591"/>
   </g>
   <g>
    <circle id="_281586192" class="fil3" cx="0.856216" cy="0.856216" r="0.514439"/>
    <circle id="_281586120" class="fil4" cx="0.859534" cy="0.846258" r="0.497844"/>
    <path id="_281586048" class="fil5" d="M0.856213 0.310568l3.42488e-005 0 0 0.000123296c0.150708,6.84976e-006 0.287121,0.0610519 0.385792,0.159723 0.0986502,0.0986571 0.159688,0.235043 0.159702,0.385737l0.000123296 0 0 6.16478e-005 0 3.42488e-005 -0.000123296 0c-6.84976e-006,0.150708 -0.0610519,0.287121 -0.15973,0.385792 -0.0986502,0.0986502 -0.235036,0.159688 -0.38573,0.159702l0 0.000123296 -6.84976e-005 0 -2.7399e-005 0 0 -0.000123296c-0.150715,-6.84976e-006 -0.287121,-0.0610519 -0.385785,-0.15973 -0.0986502,-0.0986502 -0.159688,-0.235036 -0.159709,-0.38573l-0.000123296 0 0 -6.84976e-005 0 -2.7399e-005 0.000123296 0c6.84976e-006,-0.150715 0.0610519,-0.287121 0.159723,-0.385785 0.0986571,-0.0986502 0.235043,-0.159688 0.385737,-0.159709l0 -0.000123296 6.16478e-005 0zm3.42488e-005 0.0622917l0 0.000123296 -3.42488e-005 0 -6.16478e-005 0 0 -0.000123296c-0.133303,1.36995e-005 -0.254099,0.054161 -0.341611,0.141667 -0.0875194,0.0875125 -0.141674,0.208335 -0.14168,0.341659l0.000123296 0 0 2.7399e-005 0 6.84976e-005 -0.000123296 0c1.36995e-005,0.13331 0.054161,0.254105 0.141667,0.341611 0.0875125,0.0875194 0.208335,0.141674 0.341659,0.14168l0 -0.000123296 2.7399e-005 0 6.84976e-005 0 0 0.000123296c0.13331,-1.36995e-005 0.254099,-0.0541542 0.341611,-0.14166 0.0875194,-0.0875194 0.141674,-0.208335 0.14168,-0.341666l-0.000123296 0 0 -3.42488e-005 0 -6.16478e-005 0.000123296 0c-1.36995e-005,-0.133303 -0.0541542,-0.254099 -0.14166,-0.341611 -0.0875194,-0.0875194 -0.208335,-0.141674 -0.341666,-0.14168z"/>
    <path id="_281585976" class="fil6" d="M1.10922 1.11717c0.0124871,-0.0213027 0.0194054,-0.0445645 0.0194054,-0.0689154 0,-0.101753 -0.119987,-0.184252 -0.267942,-0.184252 -0.147948,0 -0.267942,0.0824985 -0.267942,0.184252 0,0.0232892 0.00632233,0.0455783 0.017782,0.0661139 0.0205219,-0.0950472 0.124227,-0.167388 0.24905,-0.167388 0.126049,0 0.230563,0.0737582 0.249646,0.170189z"/>
    <path id="_281585904" class="fil7" d="M0.739897 0.541309l0.0300293 0.0300293c0.00146585,0.00146585 0.00085622,0.00447289 -0.0013494,0.00667851l-0.0713745 0.0713745 0.0710183 0.0710183c0.00240427,0.00240427 0.00306184,0.00567845 0.00146585,0.00727444l-0.0295499 0.0295499c-0.00159599,0.00160284 -0.00487018,0.000945267 -0.00727444,-0.00146585l-0.0710183 -0.0710183 -0.0713813 0.0713813c-0.00220562,0.00220562 -0.00520582,0.00281525 -0.00667166,0.00134255l-0.0300362 -0.0300293c-0.00146585,-0.00146585 -0.00085622,-0.00446604 0.0013494,-0.00667166l0.0713745 -0.0713813 -0.0710114 -0.0710114c-0.00240427,-0.00241111 -0.00306184,-0.0056853 -0.00146585,-0.00728129l0.0295499 -0.0295499c0.00159599,-0.00159599 0.00487018,-0.000938417 0.00727444,0.00146585l0.0710183 0.0710183 0.0713745 -0.0713745c0.00220562,-0.00221247 0.00520582,-0.00281525 0.00667851,-0.0013494z"/>
    <path id="_281585832" class="fil7" d="M1.12502 0.541309l0.0300293 0.0300293c0.00146585,0.00146585 0.00086307,0.00447289 -0.0013494,0.00667851l-0.0713745 0.0713745 0.0710183 0.0710183c0.00240427,0.00240427 0.00306184,0.00567845 0.00146585,0.00727444l-0.0295499 0.0295499c-0.00159599,0.00160284 -0.00487018,0.000945267 -0.00727444,-0.00146585l-0.0710183 -0.0710183 -0.0713813 0.0713813c-0.00220562,0.00220562 -0.00520582,0.00281525 -0.00667166,0.00134255l-0.0300362 -0.0300293c-0.00146585,-0.00146585 -0.00085622,-0.00446604 0.0013494,-0.00667166l0.0713745 -0.0713813 -0.0710114 -0.0710114c-0.00240427,-0.00241111 -0.00306184,-0.0056853 -0.00146585,-0.00728129l0.0295499 -0.0295499c0.00159599,-0.00159599 0.00487018,-0.000938417 0.00727444,0.00146585l0.0710183 0.0710183 0.0713745 -0.0713745c0.00220562,-0.00221247 0.00521267,-0.00281525 0.00667851,-0.0013494z"/>
   </g>
  </g>
 </g>
</svg>

<svg xmlns="http://www.w3.org/2000/svg" xml:space="preserve" width="25mm" height="25mm" style="shape-rendering:geometricPrecision;text-rendering:geometricPrecision;image-rendering:optimizeQuality;fill-rule:evenodd;clip-rule:evenodd" viewBox="0 0 1.712 1.712"><defs><radialGradient id="id0" gradientUnits="userSpaceOnUse" cx=".631" cy=".677" r=".678" fx=".631" fy=".677"><stop offset="0" style="stop-color:white"/><stop offset=".302" style="stop-color:#f3f516"/><stop offset=".588" style="stop-color:#fcce00"/><stop offset="1" style="stop-color:#ff9e67"/></radialGradient><style>.fil7{fill:#000}.fil0{fill:gray}</style></defs><g id="Layer_x0020_1"><g id="_280013496"><path id="_280272344" class="fil0" d="M0 0h1.712v1.712H0z"/><path id="_280270160" style="fill:#fff" d="M.055.055h1.601l-.683.68-.918.921z"/><path id="_280270088" class="fil0" d="M1.667.045v1.622H.045z"/><path id="_280270016" style="fill:#c6c6c6" d="M.203.203h1.306v1.306H.203z"/><g><circle id="_281586192" cx=".856" cy=".856" r=".514" style="fill:none"/><circle id="_281586120" cx=".86" cy=".846" r=".498" style="fill:url(#id0)"/><path id="_281586048" d="M.856.31a.544.544 0 0 1 .546.546.544.544 0 0 1-.546.546.544.544 0 0 1-.545-.546.544.544 0 0 1 .545-.545zm0 .063a.482.482 0 0 0-.483.483.482.482 0 0 0 .483.484.482.482 0 0 0 .484-.484.482.482 0 0 0-.484-.483z" style="fill:#000;fill-rule:nonzero"/><path id="_281585976" d="M1.11 1.117a.135.135 0 0 0 .019-.069c0-.101-.12-.184-.268-.184-.148 0-.268.083-.268.184 0 .024.006.046.018.066C.63 1.02.735.947.86.947c.126 0 .23.074.25.17z" style="fill:#000"/><path id="_281585904" class="fil7" d="m.74.541.03.03C.77.573.77.576.769.578L.697.649.768.72C.771.723.771.726.77.728l-.03.03C.74.757.735.757.733.755L.662.685.59.756C.588.758.585.76.584.757l-.03-.03C.552.726.553.723.555.721L.626.649.556.58C.552.575.551.572.553.57l.03-.03C.585.54.588.542.59.544l.07.071.072-.071C.735.54.738.54.74.54z"/><path id="_281585832" class="fil7" d="m1.125.541.03.03c.002.002 0 .005-.001.007l-.072.071.071.071c.003.003.003.006.002.008l-.03.03c-.001 0-.005 0-.007-.002L1.047.685.976.756C.973.758.97.76.969.757l-.03-.03C.937.726.938.723.94.721l.072-.072L.94.58C.938.575.938.572.939.57l.03-.03C.97.54.974.542.976.544l.071.071.071-.071C1.121.54 1.124.54 1.125.54z"/></g></g></g></svg>
